icons/sketchup.svg

<!--
  - The MIT License (MIT)
  -
  - Copyright (c) 2015-2024 Elior "Mallowigi" Boukhobza
  -
  - Permission is hereby granted, free of charge, to any person obtaining a copy
  - of this software and associated documentation files (the "Software"), to deal
  - in the Software without restriction, including without limitation the rights
  - to use, copy, modify, merge, publish, distribute, sublicense, and/or sell
  - copies of the Software, and to permit persons to whom the Software is
  - furnished to do so, subject to the following conditions:
  -
  - The above copyright notice and this permission notice shall be included in all
  - copies or substantial portions of the Software.
  -
  - THE SOFTWARE IS PROVIDED "AS IS", WITHOUT WARRANTY OF ANY KIND, EXPRESS OR
  - IMPLIED, INCLUDING BUT NOT LIMITED TO THE WARRANTIES OF MERCHANTABILITY,
  - FITNESS FOR A PARTICULAR PURPOSE AND NONINFRINGEMENT. IN NO EVENT SHALL THE
  - AUTHORS OR COPYRIGHT HOLDERS BE LIABLE FOR ANY CLAIM, DAMAGES OR OTHER
  - LIABILITY, WHETHER IN AN ACTION OF CONTRACT, TORT OR OTHERWISE, ARISING FROM,
  - OUT OF OR IN CONNECTION WITH THE SOFTWARE OR THE USE OR OTHER DEALINGS IN THE
  - SOFTWARE.
  -
  -->

<svg version="1.1" xmlns="http://www.w3.org/2000/svg" viewBox="0 0 512 512" width="16px" height="16px">
  <path fill="#1E5B9E" data-iconColor="SketchUp Layout"
        d="M360.8483582,22.5090694L0,113.4565048l85.1634369,376.0344238L512,357.7737732L360.8483582,22.5090694z M465.5678406,335.8240356l-57.3692627,17.3511963l-15.8345337-86.2480164l-12.8896179,3.2724609l-63.5795288-158.1084747l47.7706909-12.6709442L465.5678406,335.8240356z M360.3253479,91.671196l-47.6316833,12.4593353l-15.9507751-39.666275l46.6970825-11.9655228L360.3253479,91.671196z M287.7737732,66.7624741l15.7247314,39.7732925L129.265564,152.1110535l-3.3776855-10.9774475l-77.6119537,36.7906952l-11.4697914-46.8546906L287.7737732,66.7624741z M112.8096008,442.5943604L73.4953613,281.9041138l160.3921509-44.4082642l51.4170227,152.6829529L112.8096008,442.5943604z M274.245575,169.8210297L60.4875565,227.8092804l-12.0572319-49.2542419l86.4529724-7.4103394l-3.2956085-10.1671753l175.0753021-46.4376602l62.8414307,158.9477844l-13.3635864,4.2368469l50.8757324,75.808197l-59.0628662,17.8634338L274.245575,169.8210297z M148.5649414,378.2078247c-33.1066818-19.0863647-31.3467407-66.6447449,3.1610107-85.0840149c33.704361-18.0099487,74.8106995-1.3170776,76.918045,40.8297729C230.617569,373.4248962,181.6716156,397.2941895,148.5649414,378.2078247z M221.0874939,332.5817566c-3.0040894-35.5266113-36.7787781-49.6937561-66.1385803-34.0053406c-30.0596313,16.0624084-29.8657227,58.0713806-0.7527466,74.2132263C181.4972076,387.9268494,224.1533356,368.8386841,221.0874939,332.5817566z M161.2669678,361.1423645l4.7891235-46.585144l9.8394775-3.1347046l27.9510803,36.0490723l-7.5795135,4.2120056l-8.0357056-10.171051l-17.4762573,5.1136169l-0.7807007,11.9910278L161.2669678,361.1423645z M171.1064453,339.4606934l13.1788483-3.9422913l-11.6962585-15.7108154L171.1064453,339.4606934z"/>
</svg>

<svg xmlns="http://www.w3.org/2000/svg" viewBox="0 0 512 512"><path fill="#1e5b9e" d="M360.848 22.51 0 113.456 85.163 489.49 512 357.774zm104.72 313.314-57.37 17.351-15.834-86.248-12.89 3.273-63.58-158.109 47.772-12.67zM360.325 91.671l-47.631 12.46-15.951-39.667L343.44 52.5zm-72.551-24.909 15.725 39.774-174.233 45.575-3.378-10.977-77.612 36.79-11.47-46.854zM112.81 442.594l-39.315-160.69 160.393-44.408 51.417 152.683zm161.436-272.773L60.488 227.809 48.43 178.555l86.453-7.41-3.295-10.167 175.075-46.438 62.841 158.948-13.363 4.236 50.876 75.809-59.063 17.863zM148.565 378.208c-33.107-19.087-31.347-66.645 3.161-85.084 33.704-18.01 74.81-1.317 76.918 40.83 1.974 39.47-46.972 63.34-80.08 44.254m72.522-45.626c-3.004-35.527-36.778-49.694-66.138-34.006-30.06 16.063-29.866 58.072-.753 74.214 27.301 15.137 69.957-3.951 66.891-40.208m-59.82 28.56 4.79-46.585 9.839-3.134 27.95 36.049-7.579 4.212-8.036-10.171-17.476 5.113-.78 11.991zm9.84-21.681 13.178-3.943-11.696-15.71z" data-iconColor="SketchUp Layout"/></svg>
